assets/img/Goals.svg

<svg width="200" height="200" viewBox="0 0 200 200" fill="none" xmlns="http://www.w3.org/2000/svg">
<g filter="url(#filter0_dd)">
<circle cx="100" cy="100" r="75" fill="#26C195"/>
</g>
<path d="M98.9112 56.1111C105.91 56.1111 110.111 60.0598 110.111 67.1333V122.778C110.111 124.312 108.868 125.556 107.333 125.556C105.799 125.556 104.556 124.312 104.556 122.778V67.2222C104.556 62.599 103.623 61.6666 99 61.6666C94.3769 61.6666 93.4445 62.599 93.4445 67.2222V122.778C93.4445 124.312 92.2009 125.556 90.6667 125.556C89.1325 125.556 87.8889 124.312 87.8889 122.778V67.1334C87.8889 59.7528 91.5304 56.1108 98.9112 56.1111Z" fill="white"/>
<path d="M71.1334 78.3333C63.7526 78.3331 60.1111 81.975 60.1111 89.3556V122.778C60.1111 124.312 61.3547 125.556 62.8889 125.556C64.4231 125.556 65.6667 124.312 65.6667 122.778V89.4444C65.6667 84.8212 66.5991 83.8889 71.2222 83.8889C75.8454 83.8889 76.7778 84.8212 76.7778 89.4444V122.778C76.7778 124.312 78.0214 125.556 79.5556 125.556C81.0897 125.556 82.3333 124.312 82.3333 122.778V89.3556C82.3333 81.8451 78.585 78.3333 71.1334 78.3333Z" fill="white"/>
<path d="M62.8889 133.889C61.3547 133.889 60.1111 135.133 60.1111 136.667C60.1111 138.201 61.3547 139.444 62.8889 139.444H135.111C136.645 139.444 137.889 138.201 137.889 136.667C137.889 135.133 136.645 133.889 135.111 133.889H62.8889Z" fill="white"/>
<path d="M126.689 92.2222C119.308 92.2219 115.667 95.8639 115.667 103.244V122.778C115.667 124.312 116.91 125.555 118.444 125.555C119.979 125.555 121.222 124.312 121.222 122.778V103.333C121.222 98.7101 122.155 97.7777 126.778 97.7777C131.401 97.7777 132.333 98.7101 132.333 103.333V122.778C132.333 124.312 133.577 125.555 135.111 125.555C136.645 125.555 137.889 124.312 137.889 122.778V103.244C137.889 96.1709 133.688 92.2222 126.689 92.2222Z" fill="#33D87D"/>
<defs>
<filter id="filter0_dd" x="0" y="0" width="200" height="200" filterUnits="userSpaceOnUse" color-interpolation-filters="sRGB">
<feFlood flood-opacity="0" result="BackgroundImageFix"/>
<feColorMatrix in="SourceAlpha" type="matrix" values="0 0 0 0 0 0 0 0 0 0 0 0 0 0 0 0 0 0 127 0"/>
<feOffset dx="10" dy="10"/>
<feGaussianBlur stdDeviation="7.5"/>
<feColorMatrix type="matrix" values="0 0 0 0 0.682353 0 0 0 0 0.682353 0 0 0 0 0.752941 0 0 0 0.4 0"/>
<feBlend mode="normal" in2="BackgroundImageFix" result="effect1_dropShadow"/>
<feColorMatrix in="SourceAlpha" type="matrix" values="0 0 0 0 0 0 0 0 0 0 0 0 0 0 0 0 0 0 127 0"/>
<feOffset dx="-10" dy="-10"/>
<feGaussianBlur stdDeviation="7.5"/>
<feColorMatrix type="matrix" values="0 0 0 0 1 0 0 0 0 1 0 0 0 0 1 0 0 0 1 0"/>
<feBlend mode="normal" in2="effect1_dropShadow" result="effect2_dropShadow"/>
<feBlend mode="normal" in="SourceGraphic" in2="effect2_dropShadow" result="shape"/>
</filter>
</defs>
</svg>

<svg xmlns="http://www.w3.org/2000/svg" width="200" height="200" fill="none" xmlns:v="https://vecta.io/nano"><g filter="url(#A)"><circle cx="100" cy="100" r="75" fill="#26c195"/></g><path d="M98.9 56.1c7 0 11.2 3.95 11.2 11.022v55.645a2.78 2.78 0 0 1-2.778 2.778 2.78 2.78 0 0 1-2.777-2.778V67.222c0-4.623-.933-5.556-5.556-5.556s-5.555.932-5.555 5.556v55.556a2.78 2.78 0 0 1-2.778 2.778 2.78 2.78 0 0 1-2.778-2.778V67.133c0-7.38 3.64-11.023 11.022-11.022zM71.133 78.333c-7.38 0-11.022 3.642-11.022 11.022v33.422a2.78 2.78 0 0 0 2.778 2.778 2.78 2.78 0 0 0 2.778-2.778V89.444c0-4.623.932-5.555 5.555-5.555s5.556.932 5.556 5.555v33.334a2.78 2.78 0 0 0 2.778 2.778 2.78 2.78 0 0 0 2.778-2.778V89.356c0-7.5-3.748-11.022-11.2-11.022zM62.9 133.9a2.78 2.78 0 0 0-2.778 2.778 2.78 2.78 0 0 0 2.778 2.777h72.222a2.78 2.78 0 0 0 2.778-2.777 2.78 2.78 0 0 0-2.778-2.778H62.9z" fill="#fff"/><path d="M126.69 92.222c-7.38 0-11.022 3.642-11.022 11.022v19.534c0 1.534 1.243 2.777 2.777 2.777s2.778-1.243 2.778-2.777v-19.445c0-4.623.933-5.555 5.556-5.555s5.555.932 5.555 5.555v19.445a2.78 2.78 0 0 0 2.778 2.777 2.78 2.78 0 0 0 2.778-2.777v-19.534c0-7.073-4.2-11.022-11.2-11.022z" fill="#33d87d"/><defs><filter id="A" x="0" y="0" width="200" height="200" filterUnits="userSpaceOnUse" color-interpolation-filters="sRGB"><feFlood flood-opacity="0" result="A"/><feColorMatrix in="SourceAlpha" values="0 0 0 0 0 0 0 0 0 0 0 0 0 0 0 0 0 0 127 0"/><feOffset dx="10" dy="10"/><feGaussianBlur stdDeviation="7.5"/><feColorMatrix values="0 0 0 0 0.682353 0 0 0 0 0.682353 0 0 0 0 0.752941 0 0 0 0.4 0"/><feBlend in2="A" result="B"/><feColorMatrix in="SourceAlpha" values="0 0 0 0 0 0 0 0 0 0 0 0 0 0 0 0 0 0 127 0"/><feOffset dx="-10" dy="-10"/><feGaussianBlur stdDeviation="7.5"/><feColorMatrix values="0 0 0 0 1 0 0 0 0 1 0 0 0 0 1 0 0 0 1 0"/><feBlend in2="B"/><feBlend in="SourceGraphic"/></filter></defs></svg>
